src/icons/svg/dashboard.svg

<?xml version="1.0" encoding="UTF-8"?>
<svg width="40px" height="36px" viewBox="0 0 40 36" version="1.1" xmlns="http://www.w3.org/2000/svg"
>
    <path d="M38.4285714,12.2142857 C37.4196429,9.83035714 35.9776786,7.69196429 34.1428571,5.85714286 C32.3080357,4.02232143 30.1696429,2.58035714 27.7857143,1.57142857 C25.3169643,0.526785714 22.7008929,0 20,0 C17.2991071,0 14.6830357,0.526785714 12.2142857,1.57142857 C9.83035714,2.58035714 7.69196429,4.02232143 5.85714286,5.85714286 C4.02232143,7.69196429 2.58035714,9.83035714 1.57142857,12.2142857 C0.526785714,14.6830357 0,17.2991071 0,20 C0,25.9241071 2.60267857,31.5044643 7.13839286,35.3169643 L7.21428571,35.3794643 C7.47321429,35.59375 7.79910714,35.7142857 8.13392857,35.7142857 L31.8705357,35.7142857 C32.2053571,35.7142857 32.53125,35.59375 32.7901786,35.3794643 L32.8660714,35.3169643 C37.3973214,31.5044643 40,25.9241071 40,20 C40,17.2991071 39.46875,14.6830357 38.4285714,12.2142857 Z M31.1339286,32.3214286 L8.86607143,32.3214286 C5.37946429,29.1741071 3.39285714,24.7142857 3.39285714,20 C3.39285714,15.5625 5.12053571,11.3928571 8.25892857,8.25892857 C11.3973214,5.12053571 15.5669643,3.39285714 20,3.39285714 C24.4375,3.39285714 28.6071429,5.12053571 31.7410714,8.25892857 C34.8794643,11.3973214 36.6071429,15.5669643 36.6071429,20 C36.6071429,24.7142857 34.6205357,29.1741071 31.1339286,32.3214286 Z"
          id="形状"></path>
    <path d="M24.9776786,13.8169643 C24.8392857,13.6785714 24.6116071,13.6785714 24.4732143,13.8169643 L20.7008929,17.5892857 C19.8660714,17.3660714 18.9419643,17.5803571 18.2857143,18.2366071 C17.3080357,19.2142857 17.3080357,20.7946429 18.2857143,21.7723214 C19.2633929,22.75 20.84375,22.75 21.8214286,21.7723214 C22.4776786,21.1160714 22.6919643,20.1919643 22.46875,19.3571429 L26.2410714,15.5848214 C26.3794643,15.4464286 26.3794643,15.21875 26.2410714,15.0803571 L24.9776786,13.8169643 L24.9776786,13.8169643 Z M19.0178571,9.28571429 L20.9821429,9.28571429 C21.1785714,9.28571429 21.3392857,9.125 21.3392857,8.92857143 L21.3392857,5.35714286 C21.3392857,5.16071429 21.1785714,5 20.9821429,5 L19.0178571,5 C18.8214286,5 18.6607143,5.16071429 18.6607143,5.35714286 L18.6607143,8.92857143 C18.6607143,9.125 18.8214286,9.28571429 19.0178571,9.28571429 Z M30.625,19.0178571 L30.625,20.9821429 C30.625,21.1785714 30.7857143,21.3392857 30.9821429,21.3392857 L34.5535714,21.3392857 C34.75,21.3392857 34.9107143,21.1785714 34.9107143,20.9821429 L34.9107143,19.0178571 C34.9107143,18.8214286 34.75,18.6607143 34.5535714,18.6607143 L30.9821429,18.6607143 C30.7857143,18.6607143 30.625,18.8214286 30.625,19.0178571 Z M31.1919643,10.2142857 L29.8035714,8.82589286 C29.6651786,8.6875 29.4375,8.6875 29.2991071,8.82589286 L26.7723214,11.3526786 C26.6339286,11.4910714 26.6339286,11.71875 26.7723214,11.8571429 L28.1607143,13.2455357 C28.2991071,13.3839286 28.5267857,13.3839286 28.6651786,13.2455357 L31.1919643,10.71875 C31.3303571,10.5803571 31.3303571,10.3526786 31.1919643,10.2142857 Z M10.71875,8.82589286 C10.5803571,8.6875 10.3526786,8.6875 10.2142857,8.82589286 L8.82589286,10.2142857 C8.6875,10.3526786 8.6875,10.5803571 8.82589286,10.71875 L11.3526786,13.2455357 C11.4910714,13.3839286 11.71875,13.3839286 11.8571429,13.2455357 L13.2455357,11.8571429 C13.3839286,11.71875 13.3839286,11.4910714 13.2455357,11.3526786 L10.71875,8.82589286 Z M8.83928571,18.6607143 L5.26785714,18.6607143 C5.07142857,18.6607143 4.91071429,18.8214286 4.91071429,19.0178571 L4.91071429,20.9821429 C4.91071429,21.1785714 5.07142857,21.3392857 5.26785714,21.3392857 L8.83928571,21.3392857 C9.03571429,21.3392857 9.19642857,21.1785714 9.19642857,20.9821429 L9.19642857,19.0178571 C9.19642857,18.8214286 9.03571429,18.6607143 8.83928571,18.6607143 Z"
          id="形状"></path>
</svg>

<svg width="40" height="36" xmlns="http://www.w3.org/2000/svg"><path d="M38.429 12.214a19.942 19.942 0 0 0-4.286-6.357A19.942 19.942 0 0 0 20 0 19.942 19.942 0 0 0 5.857 5.857 19.942 19.942 0 0 0 0 20a19.964 19.964 0 0 0 7.138 15.317l.076.062c.26.215.585.335.92.335H31.87c.334 0 .66-.12.92-.335l.075-.062A19.974 19.974 0 0 0 40 20c0-2.7-.531-5.317-1.571-7.786zm-7.295 20.107H8.866A16.568 16.568 0 0 1 3.393 20c0-4.438 1.728-8.607 4.866-11.741A16.497 16.497 0 0 1 20 3.393c4.438 0 8.607 1.728 11.741 4.866A16.497 16.497 0 0 1 36.607 20c0 4.714-1.986 9.174-5.473 12.321z"/><path d="M24.978 13.817a.358.358 0 0 0-.505 0l-3.772 3.772a2.494 2.494 0 0 0-2.415.648 2.498 2.498 0 0 0 0 3.535 2.498 2.498 0 0 0 3.535 0c.657-.656.871-1.58.648-2.415l3.772-3.772a.358.358 0 0 0 0-.505l-1.263-1.263zm-5.96-4.531h1.964c.197 0 .357-.161.357-.357V5.357A.358.358 0 0 0 20.982 5h-1.964a.358.358 0 0 0-.357.357V8.93c0 .196.16.357.357.357zm11.607 9.732v1.964c0 .197.16.357.357.357h3.572c.196 0 .357-.16.357-.357v-1.964a.358.358 0 0 0-.357-.357h-3.572a.358.358 0 0 0-.357.357zm.567-8.804l-1.388-1.388a.358.358 0 0 0-.505 0l-2.527 2.527a.358.358 0 0 0 0 .504l1.389 1.389a.358.358 0 0 0 .504 0l2.527-2.527a.358.358 0 0 0 0-.505zM10.719 8.826a.358.358 0 0 0-.505 0l-1.388 1.388a.358.358 0 0 0 0 .505l2.527 2.527a.358.358 0 0 0 .504 0l1.389-1.389a.358.358 0 0 0 0-.504l-2.527-2.527zm-1.88 9.835H5.268a.358.358 0 0 0-.357.357v1.964c0 .197.16.357.357.357h3.571c.197 0 .357-.16.357-.357v-1.964a.358.358 0 0 0-.357-.357z"/></svg>
